X:1
T:Erzurum, 12.12.12 D
T:Erzurum, 12.12.12 D
T:John Henry Kurzenknabe, 1890
T:Public Domain Courtesy of the Cyber Hymnal™
C:John Henry Kurzenknabe, 1890
Z:Public Domain
Z:Courtesy of the Cyber Hymnal™
%%score ( 1 2 ) ( 3 4 )
L:1/8
Q:1/4=110
M:4/4
K:C
V:1 treble 
V:2 treble 
V:3 bass 
V:4 bass 
V:1
 G2 | c3 G E2 C2 | G6 [Ec]2 | [Fd]2 [Fd]2 [Ec]2 [DB]2 | [Ec]6 ([CE][DF]) | %5
 [EG]2 [EG]2 [EG]2 [FA][EG] | [DF]6 ([B,D][CE]) | [DF]2 [DF]2 [DF]2 [EG][DF] | [CE]6 ([CE][DF]) | %9
 [EG]2 [EG]2 [EG]2 [Ec][GB] | [FA]6 [FA]2 | [^FA]2 [FA]2 [FA]2 (dc) | ([GB]4 [FA]2) [FG]2 | %13
 [EG]2 [Ec]2 [Ge]2 [Gc]2 | [FA]4 [Fd]4 | [Ec]2 [Ec]2 [DB]2 [FB]2 | [Ec]6 [Ed]2 | %17
 [Gd]2 [Gd]2 [Gd]2 [Gf]2 | [Ge]6 [Gc]2 | [FA]2 [FA]2 [^Fd]2 [Ac]2 | ([GB]4 [FA]2) [FG]2 | %21
 [EG]2 [Ec]2 [Ge]2 [Gc]2 | [FA]4 [Fd]4 | [Ec]2 [Ec]2 [DB]2 [FB]2 | [Ec]6 |] %25
V:2
 G2 | c3 G E2 C2 | G6 x2 | x8 | x8 | x8 | x8 | x8 | x8 | x8 | x8 | x6 A2 | x8 | x8 | x8 | x8 | x8 | %17
 x8 | x8 | x8 | x8 | x8 | x8 | x8 | x6 |] %25
V:3
 G,2 | C3 G, E,2 C,2 | G,6 [C,G,]2 | [F,A,]2 [F,A,]2 G,2 [G,,G,]2 | [C,G,]6 [C,G,]2 | %5
 [C,C]2 [C,C]2 [C,C]2 [C,C]2 | [G,B,]6 G,2 | [G,,G,]2 [G,,G,]2 [G,,G,]2 [G,,G,]2 | %8
 [C,G,]6 [C,G,]2 | [C,C]2 [C,C]2 [C,C]2 [E,C]2 | [F,C]6 [F,C]2 | [D,D]2 [D,D]2 [D,D]2 [^F,D]2 | %12
 (D4 B,2) [G,B,]2 | [C,C]2 [C,G,]2 [C,C]2 [E,C]2 | [F,C]4 [F,A,]4 | G,2 G,2 [G,,G,]2 [G,,G,]2 | %16
 [C,G,]6 [C,G,]2 | [G,B,]2 [G,B,]2 [G,B,]2 [G,D]2 | C6 [E,C]2 | [F,C]2 [F,C]2 [D,D]2 [^F,D]2 | %20
 (D4 B,2) [G,B,]2 | [C,C]2 [C,G,]2 [C,C]2 [E,C]2 | [F,C]4 [F,A,]4 | G,2 G,2 [G,,G,]2 [G,,G,]2 | %24
 [C,G,]6 |] %25
V:4
 G,2 | C3 G, E,2 C,2 | G,6 x2 | x4 G,2 x2 | x8 | x8 | x6 G,2 | x8 | x8 | x8 | x8 | x8 | G,6 x2 | %13
 x8 | x8 | G,2 G,2 x4 | x8 | x8 | C6 x2 | x8 | G,6 x2 | x8 | x8 | G,2 G,2 x4 | x6 |] %25

